X:1
T:Klid - Waldesruhe - Silent Woods
T:Klid - Waldesruhe - Silent Woods
T:No. 5 from Ze Šumavy - Aus dem Böhmer Walde - From the Bohemian Forest, Op. 68 B. 133
T:Antonín Dvořák (1841-1904)
C:Antonín Dvořák (1841-1904)
%%score 1 { ( 2 4 ) | ( 3 5 ) }
L:1/8
Q:1/4=52
M:4/4
K:Db
V:1 bass nm="Violoncello"
V:2 bass nm="Piano"
V:4 bass 
V:3 bass 
V:5 bass 
V:1
"^Lento e molto cantabile. (M.M. \n.)\n"!pp! (A, D2 C2) (B,2 =A,-) | A, (C2 B,2 _A,2!<(! G,-) | %2
 G, (F,2 E,/B,/-!<)!!f! B,) (A,2 G,- | G,)!>(!(F,_F,E,) (D,C,__B,,)!>)!!pp!A,,- | %4
 A,,!pp! (D2 C2) (B,2 =A,-) | A, (B,2 _A,2) (G,2 F,- |!<(! F,)(_F,E,D- D)(C=G=F)!<)! | %7
!f!!>(! (=A,B,ED)!>)!!pp! (C _A,3) |[K:treble]!ppp! (e g2 f2) (e2 _d-) | %9
 d (_c2 (B-) B/c/4B/4 =A/B/) (_d/cB/) | (!tenuto!B!<(! !tenuto!b2) (_a2 g2) (3(e/d/e/!<)! | %11
 g2) _f4"_dim." (fd'/f/) |!p!!<(! (e d'2!<)! _c'/b/)!mf!!>(! (a=g)(fg)!>)! | %13
!p!!>(! (b2!>)!!pp! a4)!<(! _g2!<)! | %14
!mp!!<(!"_cresc. molto" (f e'2 d'/_c'/) !tenuto!c'!tenuto!c' (!tenuto!b!tenuto!=a)!<)! |!f! !^!b8 | %16
"_dim." __b8 |!pp! (a d'2!>(! c'2 _b2 =a-!>)! |!ppp! a) (b2 _a2 _g2 f- | %19
 f)(_f"_cresc."ed'- d'c'b=a) |!f!!<(! (gf)(c'!<)!!ff!b)!>(! (ag)!>)!!pp!(fc) | %21
[K:bass]!p!!<(! (D2 A,2)!<)!!>(! =G,4!>)! |!p!!<(! (D,2 A,,2)!<)!!>(! =G,,4!>)! | %23
!p!!<(! (D,2 A,,2)!<)!!>(! ([G,,__B,,]4!>)! | %24
!p! [F,,A,,]2) z2 z4[Q:1/4=45][Q:1/4=40][Q:1/4=35][Q:1/4=30] || %25
[K:E]!p![Q:1/4=56] G,"_un pochettino più mosso."z/G,/4G,/4 G,z/G,/4G,/4 (3(!tenuto!G,!tenuto!F,!tenuto!G,) (3(!tenuto!A,!tenuto!G,!tenuto!F,) | %26
 (3(!tenuto!E,!tenuto!F,!tenuto!G,) (3(!tenuto!F,!tenuto!E,!tenuto!D,) C,4 | %27
[K:treble]!p!!<(! gz/g/4g/4 gz/g/4g/4 (3(gfg) (3(baf)!<)! | %28
[M:2/4]!mf!!>(! (3([Ge][Af][Bg]) (3([^Bg][ca][Fd])!>)! |[M:4/4]!p! [Ge]2 z2!p! (f3 d) | %30
!<(! (geBG)!<)!!>(! =c4!>)! |!p! (B2 ge) (d2 fd) |!<(! (eBGE)!<)!!>(! (=c4!>)! | %33
 (3B)!p![Q:1/4=60]"^poco più string."!<(! (fg!<)!!mp!!>(! (3agd)!>)!!p! e z z2 | %34
 (3z!<(! (de!<)!!mp!!>(! (3feB)!>)!!p! c z z2 | %35
[Q:1/4=61] (3z (de[Q:1/4=62]"_poco a poco cresc. e string." (3fe) z[Q:1/4=63] (3z (de[Q:1/4=64] (3fe) z | %36
[Q:1/4=65] (3z (de)[Q:1/4=66] (3(gfe)[Q:1/4=67] (3(d^ef[Q:1/4=68] (3gf) z | %37
[Q:1/4=69] (3z (^ef)[Q:1/4=70] (3(gf) z[Q:1/4=71] (3z (ef)[Q:1/4=72] (3(^agf) | %38
!ff! !^!c'6 (3(!tenuto!c'!tenuto!b!tenuto!^a) | f4- (3!tenuto!f!tenuto!^e!tenuto!f (3(fed) | %40
[K:bass]!>(! ^A,4- (3A,(^^G,A, (3(F=E)D)!>)! | %41
!mf!!>(! C4-!>)!!mp![Q:1/4=60]"_dim. ritard." (3C(^B,C[Q:1/4=56] (3EC=A,) || %42
[K:Db]!pp![Q:1/4=52]"^Lento. (Tempo I.)" A,"_molto tranquillo" z (F,2 A,2 D2-) | D(DEF- F) (G2 A) | %44
 (=A,B,_C=C) (D _A,2 A,) | (__B,4-!>(! B,A, G,>=F,)!>)! |!ppp! F, (D2 C2 B,2 =A,- | %47
 A,) (C2 B,2 _A,2 G,- |!<(! G,) (F,2 E,/D/) (DC__B,>A,!<)! | %49
[K:treble]!mf!"_cresc." g)(fed) (cB) a2- | a6 (ge) |!>(! (D_CGE)!>)!!p!!>(! (D_C(B,G,))!>)! | %52
!pp! E4- E (G2 B-) | B (e2 f2 g2 =g) |!pp!"_accel." a8-[Q:1/4=54][Q:1/4=56] | %55
[Q:1/4=58]!<(! a8-!<)![Q:1/4=60][Q:1/4=62][Q:1/4=64] | %56
!ff![Q:1/4=66] (3a(a3/2d/)"_molto rit."[Q:1/4=60]!>(! (3d(d3/2A/)[K:bass][Q:1/4=54] (3D(A,3/2D,/)[Q:1/4=48] (3D,(A,,3/2D,,/)!>)! | %57
!p!!>(! D,,8-!>)! |!pp!!>(! !fermata!D,,8!>)! |] %59
V:2
!pp! [D,F,] z [D,F,] z [D,F,] z [D,F,] z | [D,G,] z [D,G,] z [D,G,B,] z [D,G,B,D] z | %2
!<(! ([A,C]2 [G,B,]2 [F,A,]2 [E,G,]2)!<)! |!>(! [G,B,]4"_dim." ([G,E]2 [EG][CE])!>)! | %4
!pp! [DF] z (F2 A2 d2) | (e2 [Fdf]2 [Gdg]2 [Ada]2) | [Bdb] z!<(! e2 (e2 [=EB=e][FAf])!<)! | %7
!f!!>(! ([=G_e][Fd][Ec][B,=G])!>)!!pp! [A,A][K:bass]"_dim."!>(! (!tenuto![B,D]!tenuto![A,C]!tenuto![=D,F,A,_C])!>)! | %8
!ppp! [E,G,B,] z [G,B,E] z [E,G,B,] z [G,B,E] z | [=D,F,A,] z [A,=DF] z [B,,D,A,] z [A,B,] z | %10
!<(! [E,G,B,] z [EG] z [E,__B,] z (_C__B,)!<)! |!mf! [D,_F,A,] (_F2 E/D/) (_CB,A,B,) | %12
 (B,2"_dim." E2 D4) |!p!!<(! ([E,_G,A,] G2 F/E/) (DCB,C)!<)! | %14
!mp!"_cresc." [_CE]2 (GF/E/- E__E- E/D/_C) | %15
!f!!<(! B, !^![gg']2 !^![ff']2 !^![ee']2 (!^![dd']-!<)! | %16
!ff!"_dim. molto" [dd'] [_cd_c']2 [__Bd__b]2 [Ada]2 [Gdg]) | %17
!pp! [Fdf] z ([Ff]2"_dim." [Afa]2 [dd']2) |!ppp! ([ee']2 [ff']2 [gg']2 [aa']2) | %19
 [bb'] z!<(!"_cresc." [Bb][ee']- [ee']([ee'][gg'][ff'])!<)! | %20
!f!"_dim. molto" ([ee'][dd'])([ee'][dd']) (([cc'][Bb])[Aa][Ee]) | %21
!p!!<(! [DFAd] z z2 z/!<)!!>(! (.=E/.B/.d/ (6:4:6.=e/.b/.d'/._f'/._e'/.d'/)!>)! | %22
!pp!!<(! [=fd'=f'] z z2 z/!<)!!>(! (.=E/.B/.d/ (6:4:6.=e/.b/.d'/._f'/._e'/.d'/)!>)! | %23
!pp!!<(! [=fd'=f'] z z2 z/!<)!!>(! (!wedge!__B/!wedge!__e/!wedge!g/ (6:4:6!wedge!__b/!wedge!__e'/!wedge!g'/!wedge!__b'/!wedge!a'/!wedge!g'/)!>)! | %24
!p!"_legato dim." (6:4:6(=f/d'/a/g/f/e/ (6:4:6f/a/f/e/d/A/) (6:4:6(d'/a/g/f/a/g/"_ritard." (6:4:6f/4e/4d/4A/4e/4d/4 (6:4:6A/4G/4F/4E/4D/4F/4) || %25
[K:E][K:bass]!pp! [C,G,C]"_un pochettino più mosso." z [C,G,D] z{/G,} (3EDE (3FED | (3CDE ^B,2 C4 | %27
!<(! (3ECG, (3FCG, (3GEG, (3DCA,!<)! |[M:2/4]!mp!!>(! (3(G,B,E) (3(DB,A,)!>)! | %29
[M:4/4][K:treble]!pp! Bz/B/4B/4 Bz/B/4B/4 (3(B^AB (3dcB) | %30
!<(! [GB]z/G/4G/4 Gz/G/4G/4!<)!!>(! (3(GFG (3AGF)!>)! | %31
!pp! [EGB]z/B/4B/4 Bz/B/4B/4 (3(B^AB (3dcB) | %32
!<(! [EGB]z/G/4G/4 Gz/G/4G/4!<)!!>(! (3(GFG (3AGF)!>)! | %33
!p! [B,EG] z z2 (3z!<(! (^^FG!<)!!mp!!>(! (3AGD)!>)! | %34
!p! E z z2 (3z!<(! (^DE!<)!!mp!!>(! (3FEB,)!>)! | %35
!p! C z"_poco a poco cresc. e string." (3z (^A,B,) (3(^B,C) z (3z (A,=B, | %36
 ^B,C) (3(EDC) F, z (3z (^B,C | ^^CD) (3z (^B,^C) (^^CD (3F^ED) | %38
!ff! [^A,F^A]"_appassionato" !^![ff']2 !^![^ef^e']2 !^![^df^d']2 !^![cfc']- | %39
 [cfc'] [Bfb]2 [^Af^a]2 [G^Bg]2 [FBf] |!>(! [F^Acf] [^EAc^e]2 [DFAd-] d!>)! c2 B | %41
"_dim. ritard." B ^A2 =A2 =E2 A || %42
[K:Db]!ppp! [A,FA]"_molto tranquillo" ([dd']2 [cc']2 [Bb]2 [=A=a]- | %43
 [Aa] [Bb]2 [_A_a]2 [Gg]2 [Ff]- | [Ff] [Ee]2 [Bb]2 [Aa]2 [Gg]- | %45
 ([Gg]2) [Ff][_F_f]) ([Ee][Cc] [__B,__B]>[A,A]) |!ppp! [A,FA] z z2 z4 | z8 | %48
[K:bass]!<(! z [D,F,A,]!arpeggio![D,G,B,E]!<)!!mp! z [E,G,__B,] z [G,CE] z | %49
!mf!!<(! [F,A,] z[K:treble] [A,A] z!<)![I:staff +1] [E,=A,][D,G,B,] [_G,B,=D]2- | %50
 [_G,B,=D][I:staff -1] x (3._C.G._c (G/c/g/c/ (5:4:5!arpeggio![G,EG]/C/[I:staff +1] G,/_C,/G,,/) | %51
[I:staff -1] z4 z2!pp! E2 |!pp! (G G2 F2 E2 D) | [G,A,=C]4 ([G,B,]2 [=E,=G,=A,]2) | %54
 Dz/D/4D/4 Dz/D/4D/4"_accel." (3(DCD) (3(FE3/2D/) | %55
[K:treble]!<(! (3(D [Ac][Ad]) (3(fe3/2d/)!<)!!f! (3d(c'd') (3f'(e'3/2d'/) | %56
!ff!"_molto rit."!>(! [fad']8-!>)! | %57
 [fad'] z!pp! !arpeggio![F,A,DF]2 !arpeggio![F,A,DF]2 !arpeggio![F,A,DF]2 | %58
 !arpeggio!!fermata![F,A,DF]8 |] %59
V:3
!ped! D,, z!ped-up!!ped! A,, z!ped-up!!ped! D,, z!ped-up!!ped! A,, z!ped-up! | %1
!ped! D,, z!ped-up!!ped! G,, z!ped-up!!ped! D,, z!ped-up!!ped! G,, z!ped-up! | %2
!ped! [D,,,D,,]4!ped-up!!ped! [D,,,D,,]4!ped-up! | !>![D,,,D,,]8 | %4
!ped! D,, z [D,F,] z!ped-up!!ped! D,, z [D,F,] z | %5
 D,, z!ped-up!!ped! D, z!ped-up!!ped! [B,,D,] z!ped-up!!ped! [A,,D,] z!ped-up! | %6
!ped! [=G,,E,] z [G,,E,] z [A,,E,] z!ped-up! [D,,D,]2- | %7
 [D,,D,]2!ped! [E,,,E,,]2!ped-up!!ped! [A,,,A,,]4!ped-up! | %8
!ped! [E,,B,,] z [B,,E,] z!ped-up!!ped! [E,,B,,] z!ped-up!!ped! [B,,E,] z!ped-up! | %9
!ped! [F,,B,,] z [B,,F,] z!ped-up!!ped! [F,,,F,,] z [B,,=D,] z!ped-up! | %10
!ped! [G,,,G,,] z [E,B,] z!ped-up!!ped! [_C,,G,,_C,] z [C,G,] z!ped-up! | %11
!ped! [_F,,,_F,,] z [_F,A,] z!ped-up!!ped! [G,,,G,,] z [D,F,] z!ped-up! | %12
!ped! [=G,,,=G,,] z [E,=G,] z!ped-up!!ped! [B,,,B,,] z [E,G,] z!ped-up! | %13
!ped! [=C,,A,,=C,] z [A,C] z!ped-up!!ped! [E,,A,,E,] z [E,G,A,] z!ped-up! | %14
!ped! [D,,A,,D,] z [D,A,_C] z!ped-up!!ped! D,, z [D,F,] z!ped-up! | %15
!ped! [G,,,G,,][D,G,B,][G,B,D] z [G,,,G,,][D,G,B,][G,B,D] z!ped-up! | %16
!ped! [G,,,G,,][D,G,__B,][G,B,D] z [G,,,G,,][D,G,B,][G,B,D] z!ped-up! | %17
!ped! x .A,.D x x A,[DF] x!ped-up! | %18
!ped! x [D,G,B,][G,B,D] [D,,D,]!ped-up!!ped! [B,,,B,,]D,!ped-up!!ped! [A,,,A,,]D,!ped-up! | %19
!ped! [=G,,,=G,,] [G,,D,]3!ped-up! B,A,!ped!{/F,,} !arpeggio![F,CE]2!ped-up! | %20
 [B,,,B,,][F,B,D]!ped! =A,B,!ped-up!!ped! =D,E,!ped-up!!ped! C,G,!ped-up! | %21
!ped! [D,,,D,,]3/2(D,,,/4D,,/4) D,,,3/2(D,,,/4D,,/4-)!ped-up!!ped! [D,,,D,,]4!ped-up! | %22
 [D,,,D,,]3/2(D,,,/4D,,/4) D,,,3/2(D,,,/4D,,/4-)!ped! [D,,,D,,]4!ped-up! | %23
 [D,,,D,,]3/2(D,,,/4D,,/4) D,,,3/2(D,,,/4D,,/4-)!ped! [D,,,D,,]4!ped-up! | %24
!ped! [D,,,D,,]2 z2!ped-up! z4 ||[K:E] [C,,G,,C,] z [C,,G,,C,] z [C,,G,,C,] z [F,,,F,,] z | %26
 [G,,,G,,] z [G,,,G,,] z [C,,,C,,]4 | [C,,G,,] z [D,,G,,] z [E,,C,] z (3F,A, z | %28
[M:2/4] B,, z (3[B,,,B,,]zB,, | %29
[M:4/4]!ped! !arpeggio![E,,B,,G,]4!ped-up!!ped! !arpeggio![E,,B,,F,]4!ped-up! | %30
!ped! [E,,B,,E,]4!ped-up!!ped! [E,,,E,,]4!ped-up! | %31
!ped! [E,,B,,G,]4!ped-up!!ped! [E,,B,,F,]4!ped-up! | %32
!ped! [E,,B,,E,]4!ped-up!!ped! [E,,,E,,]4!ped-up! | %33
 (3.E,,"^poco più string.".[E,G,].B, (3.^B,,.[F,G,].D (3.C,.[G,C].E (3.^B,,.F,.G, | %34
 (3.C,.G,.C (3.G,,.B,.=D (3.A,,.E,.A, (3.G,,.=D,.E, | %35
 (3A,,,E,,A,, (3G,,,E,,G,, (3A,,,E,,A,, (3G,,,E,,G,, | %36
 (3A,,,E,,A,, (3^A,,,F,,^A,, (3B,,,F,,B,, (3^A,,,F,,^A,, | %37
 (3B,,,F,,B,, (3^A,,,F,,^A,, (3B,,,F,,B,, (3^B,,,G,,^B,, | %38
!ped! [C,,C,][C,F,^A,][F,A,C] z [C,,C,][F,A,C][A,CF] z!ped-up! | %39
!ped! [D,,,D,,] [D,F,][D,F,D] z!ped-up!!ped! [D,F,^B,]4!ped-up! | %40
 (^E,,,^E,, E,,,2) (F,,,F,, F,,,2) | =G,,,=G,, G,,,2 G,,2 G,,2 || %42
[K:Db]!ped! [A,,,A,,] .[A,,F,].[F,A,] z!ped-up!!ped! [A,,,A,,] .[D,F,].[F,D] z!ped-up! | %43
!ped! [G,,,G,,] .[D,G,].[G,D] z!ped-up!!ped! [B,,,B,,][B,,D,]!ped-up!!ped! [A,,,A,,][B,,D,]!ped-up! | %44
!ped! [G,,,G,,] z .D,.D,!ped-up!!ped! [F,,,F,,]D,!ped-up!!ped! [E,,,E,,]D,!ped-up! | %45
 (D,,,D,,F,,,) z (D,,,D,,F,,,) z | %46
!ped! [D,,,D,,] .[D,F,].[F,A,] z!ped-up!!ped! [D,,,D,,] .[D,F,].[F,_CD] z!ped-up! | %47
!ped! [D,,,D,,] .[D,G,].[G,B,D] z!ped-up!!ped! [D,,,D,,] .[D,G,].[G,B,D] z!ped-up! | %48
 [D,,,D,,] z z2 [D,,,D,,] z z2 | [D,,,D,,] z F, z [G,,,G,,] z (3_C,,!ped!G,,_C, | %50
 (3.G,._C.G x2 x3/2 x/!ped-up!!ped! _C, x | _C,,!ped-up! z z2 z2 [=C,E,G,]2 | %52
 [D,G,B,]4 [D,G,B,]2 [D,G,B,]2 | [D,,D,]4 [D,,D,]2 [^C,,=A,,^C,]2 | %54
!ped! [D,,A,,D,]4 (3(F,!ped-up!E,F,) (3:2:2(A,!ped! [A,,G,]2) | %55
 (3([D,F,]!ped-up![K:treble] EF) (3:2:2(A [A,G]2) (3[DF]ef (3:2:2((a [Ag]2)) |!ped! [DAd]8- | %57
 [DAd]!ped-up! z[K:bass]!ped! !arpeggio![D,,A,,D,]2 !arpeggio![D,,A,,D,]2 !arpeggio![D,,A,,D,]2 | %58
 !arpeggio!!fermata![D,,A,,D,]8!ped-up! |] %59
V:4
 x8 | x8 | D,4 D,4 | x8 | x8 | x8 | x2 [Bd]2- [Bd][Ac] x2 | x5[K:bass] x3 | x8 | x8 | x8 | x8 | %12
 x8 | x8 | x8 | x8 | x8 | x8 | x8 | x8 | x8 | x8 | x8 | x8 | x8 ||[K:E][K:bass] x8 | %26
 x2 (3(A,G,)F, (3[E,G,][F,A,][D,F,] (3[E,G,][C,E,][G,,C,] | x8 |[M:2/4] x4 | %29
[M:4/4][K:treble] G4 =A4 | x4 [A,D]4 | x4 A4 | x4 [A,D]4 | x8 | x4 (3:2:2x C2 B,2 | x8 | x8 | x8 | %38
 x8 | x8 | x4 =E2!mf! ^A,B, | [C=E]4 z2 [=A,C]2 ||[K:Db] x8 | x8 | x8 | x8 | x8 | x8 |[K:bass] x8 | %49
 x2[K:treble] x6 | x8 | x8 | x8 | x8 | F,4 A,2 (3C-C3/2 D/ |[K:treble] x2 (3cc3/2d/ (3x aa c'2 | %56
 x8 | x8 | x8 |] %59
V:5
 x8 | x8 | x8 | x8 | x8 | x8 | x8 | x8 | x8 | x8 | x8 | x8 | x8 | x8 | x8 | x8 | x8 | %17
 [A,,,A,,] z z [D,,D,][A,,,A,,] z z [D,,D,] | [G,,,G,,] z z x5 | x4 =C,2 x2 | %20
 x2 _G,,2 G,,2{/_A,,,} _A,,2 | x8 | x8 | x8 | x8 ||[K:E] x8 | x8 | x6 A,,2 |[M:2/4] x4 | %29
[M:4/4] x8 | x8 | x8 | x8 | x8 | x8 | x8 | x8 | x8 | x8 | x8 | x8 | =G,,,4 G,,,4 ||[K:Db] x8 | x8 | %44
 x8 | x8 | x8 | x8 | x8 | x8 | x8 | x8 | x8 | x8 | x8 | x2/3[K:treble] x22/3 | x8 | x2[K:bass] x6 | %58
 z2!pppp! !fermata!D,,,6 |] %59

